public/uploads/icons/sublimetext-icon-svgrepo-com.svg

<svg height="800" preserveAspectRatio="xMidYMid" viewBox="-38 0 332 332" width="800" xmlns="http://www.w3.org/2000/svg" xmlns:xlink="http://www.w3.org/1999/xlink"><linearGradient id="a" x1="55.1171%" x2="63.680178%" y1="58.679541%" y2="39.597157%"><stop offset="0" stop-color="#ff9700"/><stop offset=".53" stop-color="#f48e00"/><stop offset="1" stop-color="#d06f00"/></linearGradient><path d="m255.288325 166.794648c0-3.886596-2.872391-6.127771-6.397279-5.014276l-242.49376666 76.895015c-3.53197905 1.120587-6.39727934 5.184491-6.39727934 9.063993v78.590081c0 3.886596 2.86530029 6.134863 6.39727934 5.014276l242.49376666-76.887923c3.524888-1.120587 6.397279-5.184491 6.397279-9.071085z" fill="url(#a)"/><g fill="#ff9800"><path d="m0 164.291056c0 3.886596 2.86530029 7.950499 6.39727934 9.071088l242.52922866 76.902106c3.531979 1.120587 6.397279-1.12768 6.397279-5.007183v-78.597174c0-3.879502-2.8653-7.943406-6.397279-9.063994l-242.52922866-76.902106c-3.53197905-1.1205878-6.39727934 1.1205878-6.39727934 5.0071831z"/><path d="m255.288325 5.30235244c0-3.88659543-2.872391-6.13486323-6.397279-5.0142755l-242.49376666 76.88792166c-3.53197905 1.1205878-6.39727934 5.1844914-6.39727934 9.0710868v78.5900796c0 3.886596 2.86530029 6.127771 6.39727934 5.014276l242.49376666-76.8950138c3.524888-1.1205878 6.397279-5.1844914 6.397279-9.0639945z"/></g></svg>

<?xml version="1.0" encoding="UTF-8"?>
<!-- Uploaded to: SVG Repo, www.svgrepo.com, Generator: SVG Repo Mixer Tools -->
<svg width="800px" height="800px" viewBox="-38 0 332 332" version="1.1" xmlns="http://www.w3.org/2000/svg" xmlns:xlink="http://www.w3.org/1999/xlink" preserveAspectRatio="xMidYMid">
    <defs>
        <linearGradient x1="55.1170996%" y1="58.6795405%" x2="63.6801778%" y2="39.5971572%" id="linearGradient-1">
            <stop stop-color="#FF9700" offset="0%">
</stop>
            <stop stop-color="#F48E00" offset="53%">
</stop>
            <stop stop-color="#D06F00" offset="100%">
</stop>
        </linearGradient>
    </defs>
    <g>
				<path d="M255.288325,166.794648 C255.288325,162.908052 252.415934,160.666877 248.891046,161.780372 L6.39727934,238.675387 C2.86530029,239.795974 0,243.859878 0,247.73938 L0,326.329461 C0,330.216057 2.86530029,332.464324 6.39727934,331.343737 L248.891046,254.455814 C252.415934,253.335227 255.288325,249.271323 255.288325,245.384729 L255.288325,166.794648 L255.288325,166.794648 Z" fill="url(#linearGradient-1)">
</path>
				<path d="M5.68434189e-14,164.291056 C5.68434189e-14,168.177652 2.86530029,172.241555 6.39727934,173.362144 L248.926508,250.26425 C252.458487,251.384837 255.323787,249.13657 255.323787,245.257067 L255.323787,166.659893 C255.323787,162.780391 252.458487,158.716487 248.926508,157.595899 L6.39727934,80.693793 C2.86530029,79.5732052 5.68434189e-14,81.8143808 5.68434189e-14,85.7009761 L5.68434189e-14,164.291056 Z" fill="#FF9800">
</path>
				<path d="M255.288325,5.30235244 C255.288325,1.41575701 252.415934,-0.83251079 248.891046,0.288076943 L6.39727934,77.1759986 C2.86530029,78.2965864 0,82.36049 0,86.2470854 L0,164.837165 C0,168.723761 2.86530029,170.964936 6.39727934,169.851441 L248.891046,92.9564272 C252.415934,91.8358394 255.288325,87.7719358 255.288325,83.8924327 L255.288325,5.30235244 Z" fill="#FF9800">
</path>
		</g>
</svg>
